!!!OTL: A REDDER TRAED A BAI
!!!ARE: Europa, Mitteleuropa, Deutschland, Nord - Friesland
!!!SCT: E1797
!!!YEM: Copyright 1995, estate of Helmut Schaffrath.
**kern
*ICvox
*Ivox
*M4/4
*k[]
*a:
{4e
=1
4e
4a
4a
4a
=2
4ffn
8ee
8dd#
4ee}
{4gn
=3
4ccn
4ccn
8dd
8ccn
4dd
=4
2ee
4r}
{4e
=5
4a
4ccn
4b
4dd
=6
4ccn
4b
2a}
=7
{8ccn
8dd
8ccn
8b
2a}
=8
{4ccn
4a
4b
4g#
=9
2a
4r}
==
!!!AGN: Tanz - Lied
!!!ONB: ESAC (Essen Associative Code) Database: ERK3
!!!AMT: simple quadruple
!!!AIN: vox
!!!EED: Helmut Schaffrath
!!!EEV: 1.0
*-
